packages/components/Atoms/Icon/assets/img/rpl_icon_menu_home.svg

<?xml version="1.0" encoding="UTF-8"?>
<svg width="16px" height="13px" viewBox="0 0 16 13" version="1.1" xmlns="http://www.w3.org/2000/svg" xmlns:xlink="http://www.w3.org/1999/xlink">
    <title>home-alt-solid</title>
    <g id="&gt;-Primary-Navigation" stroke="none" stroke-width="1" fill="none" fill-rule="evenodd">
        <g id="XS-Grid-(&lt;576px)-Megamenu---Level-1" transform="translate(-30.000000, -79.000000)" fill="#FFFFFF" fill-rule="nonzero">
            <g id="home-alt-solid" transform="translate(30.000000, 79.000000)">
                <path d="M7.78878893,3.2182699 L2.68512111,7.4217301 L2.68512111,11.9584775 C2.68512111,12.2030881 2.88341714,12.4013841 3.12802768,12.4013841 L6.2300346,12.3933564 C6.47377988,12.3921377 6.67072969,12.1941981 6.67072664,11.9504498 L6.67072664,9.30103806 C6.67072664,9.05642752 6.86902267,8.85813149 7.11363322,8.85813149 L8.88525952,8.85813149 C9.12987006,8.85813149 9.32816609,9.05642752 9.32816609,9.30103806 L9.32816609,11.9485121 C9.32779826,12.0662179 9.37429906,12.1792288 9.45740006,12.2625895 C9.54050105,12.3459502 9.65336634,12.3928033 9.77107266,12.3928028 L12.8719723,12.4013841 C13.1165829,12.4013841 13.3148789,12.2030881 13.3148789,11.9584775 L13.3148789,7.41868512 L8.21231834,3.2182699 C8.0887186,3.11864217 7.91238867,3.11864217 7.78878893,3.2182699 Z M15.850519,6.07529412 L8.84346021,0.30449827 C8.35296125,-0.0991323236 7.64537785,-0.0991323236 7.15487889,0.30449827 L0.147820069,6.07529412 C0.079887244,6.13144265 0.0370524502,6.21228621 0.028745589,6.30002743 C0.0204387278,6.38776865 0.0473407947,6.47521452 0.103529412,6.54311419 L0.809411765,7.40124567 C0.86544838,7.46938344 0.94628795,7.51243173 1.03410144,7.5208963 C1.12191492,7.52936088 1.20948875,7.50254641 1.27750865,7.44636678 L7.78878893,2.0833218 C7.91238867,1.98369407 8.0887186,1.98369407 8.21231834,2.0833218 L14.7238754,7.44636678 C14.7917751,7.5025554 14.879221,7.52945747 14.9669622,7.5211506 C15.0547034,7.51284374 15.135547,7.47000895 15.1916955,7.40207612 L15.8975779,6.54394464 C15.9537094,6.47564946 15.9803027,6.38779695 15.9714704,6.29983691 C15.962638,6.21187686 15.9191085,6.13106563 15.850519,6.07529412 Z" id="Shape"></path>
            </g>
        </g>
    </g>
</svg>

<svg width="16" height="13" xmlns="http://www.w3.org/2000/svg"><path d="M7.789 3.218L2.685 7.422v4.536c0 .245.198.443.443.443l3.102-.008c.244 0 .44-.199.44-.443V9.301c0-.245.199-.443.444-.443h1.771c.245 0 .443.198.443.443v2.648a.443.443 0 00.443.444l3.101.008a.443.443 0 00.443-.443v-4.54l-5.103-4.2c-.123-.1-.3-.1-.423 0zm8.062 2.857L8.843.305a1.329 1.329 0 00-1.688 0L.148 6.074a.332.332 0 00-.044.468l.705.858a.332.332 0 00.469.045l6.51-5.363c.124-.1.3-.1.424 0l6.512 5.363a.332.332 0 00.468-.044l.706-.858a.332.332 0 00-.047-.469z" fill="#FFF" fill-rule="nonzero"/></svg>
